X: 22
T:Namnedmans-la
M:3/4
L:1/8
C:Trad. Swedish
S:Garmarna
K:Dm
"Dm"D2 FEED|"Gm"E2GFEF|"Dm"D2DEFG|A2 AAA2|D2 FEED|"Gm"E2GFEF|"Dm"D2DEFG|
A4A2:
:"Dm"A2cBAG|AFFFFF|"C/G"G2EEEE|"Dm"F2DDD2|A2cBAG|A2FFFF|"C/G"G2E2(3EFE|D
6:|
